X:84
T:Squirrel Hunters
M:4/4
C: Traditional
R: Reel
K:Dmix
ee|:"Em"e2 e2 B2B2|efed B2 BA| "G" G2 Bc d2 Bc | dBcA Bc d2|
|"Em"e3eB2B2 | efed B2 BA| "G"G2 Bc "Em"dABG |1"D"A3B A2 e2:|2"D"A3BA2BA||
|:"Am"e2 ge a2ag | edef gedB | "G" G2Bc d2Bc | "Em"dBcA Bcd2|
|"Am"e2 ge a2ag | edef gedB | "G" G2Bc "Em" dABG |1 "D"A3 BA e2 :|2 "D"A3 BA E2|]

